src/assets/wave.svg

<svg xmlns="http://www.w3.org/2000/svg" width="960" height="150"><path fill="#2a303c" d="M0 0h960v150H0z"/><path fill="#5f6d88" d="m0 80 10.7 2.3c10.6 2.4 32 7 53.3 9 21.3 2 42.7 1.4 64 .9 21.3-.5 42.7-.9 64-6.7 21.3-5.8 42.7-17.2 64-19.2 21.3-2 42.7 5.4 64 5.5 21.3.2 42.7-6.8 64-7.1 21.3-.4 42.7 6 64 11 21.3 5 42.7 8.6 64 10.1 21.3 1.5 42.7.9 64-4.1 21.3-5 42.7-14.4 64-15.7 21.3-1.3 42.7 5.3 64 8.8 21.3 3.5 42.7 3.9 64 .9 21.3-3 42.7-9.4 64-8.2 21.3 1.2 42.7 9.8 64 14.2 21.3 4.3 42.7 4.3 53.3 4.3H960V0H0Z"/></svg>

<svg id="visual" viewBox="0 0 960 150" width="960" height="150" xmlns="http://www.w3.org/2000/svg" xmlns:xlink="http://www.w3.org/1999/xlink" version="1.1"><rect x="0" y="0" width="960" height="150" fill="#2a303c"></rect><path d="M0 80L10.7 82.3C21.3 84.7 42.7 89.3 64 91.3C85.3 93.3 106.7 92.7 128 92.2C149.3 91.7 170.7 91.3 192 85.5C213.3 79.7 234.7 68.3 256 66.3C277.3 64.3 298.7 71.7 320 71.8C341.3 72 362.7 65 384 64.7C405.3 64.3 426.7 70.7 448 75.7C469.3 80.7 490.7 84.3 512 85.8C533.3 87.3 554.7 86.7 576 81.7C597.3 76.7 618.7 67.3 640 66C661.3 64.7 682.7 71.3 704 74.8C725.3 78.3 746.7 78.7 768 75.7C789.3 72.7 810.7 66.3 832 67.5C853.3 68.7 874.7 77.3 896 81.7C917.3 86 938.7 86 949.3 86L960 86L960 0L949.3 0C938.7 0 917.3 0 896 0C874.7 0 853.3 0 832 0C810.7 0 789.3 0 768 0C746.7 0 725.3 0 704 0C682.7 0 661.3 0 640 0C618.7 0 597.3 0 576 0C554.7 0 533.3 0 512 0C490.7 0 469.3 0 448 0C426.7 0 405.3 0 384 0C362.7 0 341.3 0 320 0C298.7 0 277.3 0 256 0C234.7 0 213.3 0 192 0C170.7 0 149.3 0 128 0C106.7 0 85.3 0 64 0C42.7 0 21.3 0 10.7 0L0 0Z" fill="#5f6d88" stroke-linecap="round" stroke-linejoin="miter"></path></svg>
